shared/images/iconfont/43-kb-iconfont-hamburger-16.svg

<?xml version="1.0" encoding="UTF-8"?>
<svg width="16px" height="16px" viewBox="0 0 16 16" version="1.1" xmlns="http://www.w3.org/2000/svg" xmlns:xlink="http://www.w3.org/1999/xlink">
    <!-- Generator: sketchtool 57.1 (101010) - https://sketch.com -->
    <title>68139867-1673-4F5D-8F82-8E812C9C5EB5</title>
    <desc>Created with sketchtool.</desc>
    <g id="Symbols" stroke="none" stroke-width="1" fill="none" fill-rule="evenodd">
        <g id="43-kb-iconfont-hamburger-16">
            <g>
                <rect id="icon-area" opacity="0" x="0" y="0" width="16" height="16"></rect>
                <path d="M11,11 C11.5522847,11 12,11.4477153 12,12 C12,12.5522847 11.5522847,13 11,13 L2,13 C1.44771525,13 1,12.5522847 1,12 C1,11.4477153 1.44771525,11 2,11 L11,11 Z M8,7 C8.55228475,7 9,7.44771525 9,8 C9,8.55228475 8.55228475,9 8,9 L2,9 C1.44771525,9 1,8.55228475 1,8 C1,7.44771525 1.44771525,7 2,7 L8,7 Z M10.2164289,3.2164307 C10.5046124,2.92824611 10.9717136,2.92780002 11.2604471,3.21543363 L11.2604471,3.21543363 L12.9549865,4.90997301 L14.6495259,3.21543363 C14.9382594,2.92780002 15.4053606,2.92824611 15.6935442,3.2164307 C15.9817277,3.50461529 15.9821722,3.9717165 15.6945375,4.26044897 L15.6945375,4.26044897 L12.9549865,7 L10.2154355,4.26044897 C9.92780084,3.9717165 9.92824528,3.50461529 10.2164289,3.2164307 Z M6,3 C6.55228475,3 7,3.44771525 7,4 C7,4.55228475 6.55228475,5 6,5 L2,5 C1.44771525,5 1,4.55228475 1,4 C1,3.44771525 1.44771525,3 2,3 L6,3 Z" id="Combined-Shape" fill="#000000"></path>
            </g>
        </g>
    </g>
</svg>

<svg xmlns="http://www.w3.org/2000/svg" width="16" height="16" viewBox="0 0 16 16">
    <path fill="#000" fill-rule="evenodd" d="M11 11a1 1 0 0 1 0 2H2a1 1 0 0 1 0-2h9zM8 7a1 1 0 1 1 0 2H2a1 1 0 1 1 0-2h6zm2.216-3.784a.739.739 0 0 1 1.044 0l1.695 1.694 1.695-1.695a.739.739 0 0 1 1.045 1.045L12.955 7l-2.74-2.74a.739.739 0 0 1 .001-1.044zM6 3a1 1 0 1 1 0 2H2a1 1 0 1 1 0-2h4z"/>
</svg>
